X:41
T: Graf von Rom
N: Q0014D
O: Mitteleuropa, Deutschland (DDR) , Lausitz - Gebiet, wendisch
N: Dritte Zeile = Refrain auf sinnfreie Silben.
R: Ballade, Pilger - Reise, Gefangenschaft, Befreiung, Ehe, Liebe
M: 4/4
L: 1/8
K: G
d2 | d2GFG2A2 | B2A2B2
c2 | d2ded2AB | c2BAG2
D2 | G2AFD2D2 | G2AFD2
d2 | d2c2B2A2 | G4z2

@@@ Tune index: 670
